X: 7683
T:Polska fr V\"asterg\"otland
R:Polska
M:3/4
N:Yorkshire Dales Scandy weekend, June '99; workshop tunes
O:Sweden
Z:photocopies from Suzanne Lind \& Louise Schultz
K:Am
V:1
(ve|\
"A"a2) (ef) de | c2 (AB) cd | (ea) (ef) de | c2 A2 z::
uc|\
"G"(cB) G2 Bd | "A"(dc) A2Ac | "G"(cB) G2 Bd | "A"c2A2 z:|
V:2
(vc|\
e2) (cd) Bc | A2 (E^G) AB | (ce) (cd) Bc | A2 E2 z::\
uA|\
(AG) D2 GB | (BA) E2 EA | (AG) D2 GB | A2 E2z:|
